X:249
T: Wuduo huaer kai
N: C1742
O: China,Liaoning Beipiao
S: III, 235]
N: neuer Text. Melodie sehr bekannt. In der letzten Strophe wird der vorletzte
N: Takt eine Oktave hoeher gesungen.
R: Xiaodiao, Jianmianhua diao]
M: 2/4
L: 1/16
K: F
c2B2c2d2 | c2B2G4 | c2B2c2d2 | c2B2G4 |
G2G4G2 | f2d2c4 | G2G2A2G2 | F4F4 |
G2G2G2GG | F2D2C4 | G2G2G2GG | F2D2C4 |
F2F2D2F2 | G4F2D2 | c2c2B2d2 | c8- | c8

@@@ Tune index: 6804
